icons/communication/email-arrow-down-24.svg

<svg width="24" height="24" viewBox="0 0 24 24" fill="none" xmlns="http://www.w3.org/2000/svg">
<g clip-path="url(#clip0_248_22)">
<path d="M15.3611 18.2224L17.7053 20.3573V14.7474C17.7053 14.5492 17.7885 14.3591 17.9366 14.2189C18.0846 14.0787 18.2854 14 18.4948 14C18.7042 14 18.905 14.0787 19.0531 14.2189C19.2011 14.3591 19.2843 14.5492 19.2843 14.7474V20.3573L21.6285 18.2224C21.699 18.1496 21.784 18.0907 21.8787 18.0492C21.9733 18.0077 22.0757 17.9843 22.1799 17.9805C22.2842 17.9767 22.3882 17.9924 22.4859 18.0269C22.5837 18.0613 22.6733 18.1138 22.7495 18.1812C22.8257 18.2486 22.8871 18.3297 22.93 18.4197C22.973 18.5097 22.9966 18.6068 22.9997 18.7056C23.0027 18.8043 22.985 18.9026 22.9477 18.9948C22.9104 19.087 22.8541 19.1713 22.7822 19.2428L19.0717 22.7629C18.9978 22.8377 18.9085 22.8974 18.8093 22.9382C18.71 22.979 18.603 23 18.4948 23C18.3866 23 18.2796 22.979 18.1804 22.9382C18.0812 22.8974 17.9918 22.8377 17.918 22.7629L14.2074 19.2428C14.0669 19.0976 13.9925 18.9057 14.0006 18.7089C14.0087 18.5121 14.0985 18.3262 14.2505 18.1917C14.4025 18.0572 14.6045 17.985 14.8125 17.9908C15.0205 17.9965 15.2176 18.0797 15.3611 18.2224Z" fill="black"/>
<path fill-rule="evenodd" clip-rule="evenodd" d="M0 4.75C0 3.7835 0.783502 3 1.75 3H22.25C23.2165 3 24 3.7835 24 4.75V11.375C24 11.7892 23.6642 12.125 23.25 12.125C22.8358 12.125 22.5 11.7892 22.5 11.375V7.18716L12.7516 11.8231C12.276 12.0492 11.724 12.0492 11.2484 11.8231L1.5 7.18715V18.75C1.5 18.8881 1.61193 19 1.75 19H9.25C9.66421 19 10 19.3358 10 19.75C10 20.1642 9.66421 20.5 9.25 20.5H1.75C0.783502 20.5 0 19.7165 0 18.75V4.75ZM1.5 5.52618L11.8926 10.4685C11.9606 10.5008 12.0394 10.5008 12.1074 10.4685L22.5 5.52618V4.75C22.5 4.61193 22.3881 4.5 22.25 4.5H1.75C1.61193 4.5 1.5 4.61193 1.5 4.75V5.52618Z" fill="black"/>
</g>
<defs>
<clipPath id="clip0_248_22">
<rect width="24" height="24" fill="white"/>
</clipPath>
</defs>
</svg>

<svg xmlns="http://www.w3.org/2000/svg" width="24" height="24"><path d="M15.361 18.222l2.344 2.135v-5.61c0-.198.084-.388.232-.528a.812.812 0 01.558-.219c.21 0 .41.079.558.219.148.14.231.33.231.528v5.61l2.345-2.135a.825.825 0 011.121-.041.75.75 0 01.18.239.714.714 0 01-.148.823l-3.71 3.52a.792.792 0 01-.263.175.828.828 0 01-.891-.175l-3.71-3.52a.725.725 0 01-.207-.534.731.731 0 01.25-.517.815.815 0 01.562-.201.81.81 0 01.548.231z"/><path fill-rule="evenodd" d="M0 4.75C0 3.784.784 3 1.75 3h20.5c.966 0 1.75.784 1.75 1.75v6.625a.75.75 0 01-1.5 0V7.187l-9.748 4.636a1.75 1.75 0 01-1.504 0L1.5 7.187V18.75c0 .138.112.25.25.25h7.5a.75.75 0 010 1.5h-7.5A1.75 1.75 0 010 18.75v-14zm1.5.776l10.393 4.943a.25.25 0 00.214 0L22.5 5.526V4.75a.25.25 0 00-.25-.25H1.75a.25.25 0 00-.25.25v.776z"/></svg>
